X:1
T: Maggie's Apron
C:
R:Reel
Q: 232
K:Gm
M:4/4
L:1/8
|:d2 Bc dB GB|d2 Bc dB GB|c2 AB cA FA|cd cB Af =ef|
d2 Bc dB GB|d2 Bc dB GB|c2 AB cA FA|cd cB Af =ef|
dg g^f g2 ga|ba g^f gd BG|Af f=e f2 fg|ag f=e fc AF|
dg g^f g2 ga|ba g^f gd BG|Bd ce dg fe|dc BA G1/2G1/2G G2:|
